dist/assets/img/advantages/think.svg

<svg width="70" height="70" viewBox="0 0 70 70" fill="none" xmlns="http://www.w3.org/2000/svg">
<path d="M63.4375 53.5938H59.0625C58.4598 53.5938 57.9688 53.1037 57.9688 52.5V49.1083C60.4614 48.5997 62.3438 46.3914 62.3438 43.75V39.55C62.7452 38.0592 63.7514 36.8189 64.9239 35.3927C66.7909 33.1209 68.9062 30.5462 68.9062 26.25C68.9062 19.6164 63.5086 14.2188 56.875 14.2188C54.0367 14.2188 51.3352 15.2348 49.1991 17.0067C49.0066 11.4177 45.5798 6.49031 40.4447 4.36625C40.4545 4.26672 40.4688 4.16937 40.4688 4.06984C40.4688 2.42922 39.1333 1.09375 37.4927 1.09375H32.6047C30.9127 1.09375 29.5083 2.36359 29.3398 4.04797L29.2961 4.48219C24.3294 6.66531 20.9923 11.5741 20.8009 17.0067C18.6648 15.2348 15.9633 14.2188 13.125 14.2188C6.49141 14.2188 1.09375 19.6164 1.09375 26.25C1.09375 30.5462 3.20906 33.1209 5.07609 35.3927C6.24859 36.8189 7.25484 38.0592 7.65625 39.55V43.75C7.65625 46.3903 9.53859 48.5997 12.0312 49.1083V52.5C12.0312 54.3091 13.5034 55.7812 15.3125 55.7812H19.6875C20.2902 55.7812 20.7812 56.2713 20.7812 56.875C20.7812 57.4787 20.2902 57.9688 19.6875 57.9688H6.5625C4.75344 57.9688 3.28125 59.4409 3.28125 61.25C3.28125 63.0591 4.75344 64.5312 6.5625 64.5312H10.9375C11.5402 64.5312 12.0312 65.0213 12.0312 65.625V68.9062H14.2188V65.625C14.2188 63.8159 12.7466 62.3438 10.9375 62.3438H6.5625C5.95984 62.3438 5.46875 61.8537 5.46875 61.25C5.46875 60.6463 5.95984 60.1562 6.5625 60.1562H19.6875C21.4966 60.1562 22.9688 58.6841 22.9688 56.875C22.9688 55.0659 21.4966 53.5938 19.6875 53.5938H15.3125C14.7098 53.5938 14.2188 53.1037 14.2188 52.5V49.1083C16.7114 48.5997 18.5938 46.3914 18.5938 43.75V39.55C18.9952 38.0592 20.0014 36.8189 21.1739 35.3927C22.797 33.4173 24.6039 31.2102 25.0491 27.8447C25.1191 27.9333 25.188 28.0241 25.2569 28.1127C26.4983 29.7008 27.6664 31.2112 28.4364 33.0531V39.375C28.4364 40.7991 29.3541 42.0022 30.6239 42.455V42.6562C30.6239 44.6895 32.0239 46.387 33.9052 46.8759V48.125C33.9052 48.7287 33.4141 49.2188 32.8114 49.2188H29.5302C27.1173 49.2188 25.1552 51.1809 25.1552 53.5938C25.1552 56.0066 27.1173 57.9688 29.5302 57.9688H39.3739C41.183 57.9688 42.6552 59.4409 42.6552 61.25C42.6552 63.0591 41.183 64.5312 39.3739 64.5312H37.1864C35.3773 64.5312 33.9052 66.0034 33.9052 67.8125V68.9062H36.0927V67.8125C36.0927 67.2087 36.5838 66.7188 37.1864 66.7188H39.3739C42.3894 66.7188 44.8427 64.2655 44.8427 61.25C44.8427 58.2345 42.3894 55.7812 39.3739 55.7812H29.5302C28.3238 55.7812 27.3427 54.8002 27.3427 53.5938C27.3427 52.3873 28.3238 51.4062 29.5302 51.4062H32.8114C34.6205 51.4062 36.0927 49.9341 36.0927 48.125V46.8759C37.9739 46.387 39.3739 44.6895 39.3739 42.6562V42.455C40.6437 42.0022 41.5614 40.7991 41.5614 39.375V33.0542C42.3314 31.2123 43.4995 29.703 44.7409 28.1138C44.8098 28.0252 44.8798 27.9344 44.9487 27.8458C45.3939 31.2113 47.2019 33.4184 48.8239 35.3937C49.9964 36.82 51.0027 38.0603 51.4041 39.5511V43.75C51.4041 46.3903 53.2864 48.5997 55.7791 49.1083V52.5C55.7791 54.3091 57.2513 55.7812 59.0603 55.7812H63.4353C64.038 55.7812 64.5291 56.2713 64.5291 56.875C64.5291 57.4787 64.038 57.9688 63.4353 57.9688H50.3125C48.5034 57.9688 47.0312 59.4409 47.0312 61.25C47.0312 63.0591 48.5034 64.5312 50.3125 64.5312H54.6875C55.2902 64.5312 55.7812 65.0213 55.7812 65.625V68.9062H57.9688V65.625C57.9688 63.8159 56.4966 62.3438 54.6875 62.3438H50.3125C49.7098 62.3438 49.2188 61.8537 49.2188 61.25C49.2188 60.6463 49.7098 60.1562 50.3125 60.1562H63.4375C65.2466 60.1562 66.7188 58.6841 66.7188 56.875C66.7188 55.0659 65.2466 53.5938 63.4375 53.5938ZM53.5938 27.3438H52.5C51.8973 27.3438 51.4062 26.8538 51.4062 26.25C51.4062 25.6462 51.8973 25.1562 52.5 25.1562C53.1027 25.1562 53.5938 25.6462 53.5938 26.25V27.3438ZM57.9688 38.2812H55.7812V29.5312H57.9688V38.2812ZM60.1562 40.4688V42.6562H53.5938V40.4688H60.1562ZM32.6047 3.28125H37.4927C37.928 3.28125 38.2812 3.63453 38.2812 4.06984C38.2812 4.15297 38.267 4.23937 38.2408 4.31922L35.6705 12.0312H39.7403C40.1417 12.0312 40.4688 12.3583 40.4688 12.7608C40.4688 12.857 40.4502 12.9511 40.413 13.0408L35.4211 25.0228C35.3412 25.2153 35 25.1475 35 24.9375V14.2188H31.6148C31.0691 14.2188 30.625 13.7747 30.6305 13.1305L31.5164 4.26562C31.5722 3.70453 32.0403 3.28125 32.6047 3.28125ZM9.84375 27.3438H8.75C8.14734 27.3438 7.65625 26.8538 7.65625 26.25C7.65625 25.6462 8.14734 25.1562 8.75 25.1562C9.35266 25.1562 9.84375 25.6462 9.84375 26.25V27.3438ZM14.2188 38.2812H12.0312V29.5312H14.2188V38.2812ZM16.4062 40.4688V42.6562H9.84375V40.4688H16.4062ZM13.125 47.0312C11.7009 47.0312 10.4978 46.1136 10.045 44.8438H16.2039C15.7522 46.1136 14.5491 47.0312 13.125 47.0312ZM22.9688 26.25C22.9688 29.762 21.1969 31.9189 19.4841 34.0047C18.4111 35.3095 17.3119 36.6559 16.7016 38.2812H16.4062V29.5312H17.5C19.3091 29.5312 20.7812 28.0591 20.7812 26.25C20.7812 24.4409 19.3091 22.9688 17.5 22.9688C15.6909 22.9688 14.2188 24.4409 14.2188 26.25V27.3438H12.0312V26.25C12.0312 24.4409 10.5591 22.9688 8.75 22.9688C6.94094 22.9688 5.46875 24.4409 5.46875 26.25C5.46875 28.0591 6.94094 29.5312 8.75 29.5312H9.84375V38.2812H9.54844C8.93922 36.6548 7.83891 35.3095 6.76594 34.0047C5.05312 31.9189 3.28125 29.762 3.28125 26.25C3.28125 20.8217 7.69781 16.4062 13.125 16.4062C16.2947 16.4062 19.2642 17.9419 21.1148 20.5133C21.4736 22.1309 22.0927 23.5167 22.8517 24.7647C22.925 25.2547 22.9688 25.7523 22.9688 26.25ZM16.4062 27.3438V26.25C16.4062 25.6462 16.8973 25.1562 17.5 25.1562C18.1027 25.1562 18.5938 25.6462 18.5938 26.25C18.5938 26.8538 18.1027 27.3438 17.5 27.3438H16.4062ZM39.375 36.0938H30.625V33.9062H39.375V36.0938ZM35 44.8438C33.7936 44.8438 32.8125 43.8627 32.8125 42.6562H37.1875C37.1875 43.8627 36.2064 44.8438 35 44.8438ZM38.2812 40.4688H31.7188C31.1161 40.4688 30.625 39.9787 30.625 39.375V38.2812H39.375V39.375C39.375 39.9787 38.8839 40.4688 38.2812 40.4688ZM43.0194 26.7663C41.8447 28.2691 40.6536 29.8353 39.7786 31.7188H30.2225C29.3475 29.8353 28.1564 28.2691 26.9817 26.7663C24.9178 24.127 22.9688 21.6333 22.9688 17.5C22.9688 13.1655 25.3477 9.16672 29.0391 7.04922L28.4528 12.9128C28.4419 13.0178 28.4375 13.1228 28.4375 13.2289C28.4375 14.98 29.8627 16.4062 31.6148 16.4062H32.8125V24.9375C32.8125 26.2642 33.892 27.3438 35.2188 27.3438C36.1944 27.3438 37.065 26.763 37.4391 25.8628L42.4298 13.883C42.5808 13.5264 42.6562 13.148 42.6562 12.7608C42.6562 11.1519 41.3481 9.84375 39.7392 9.84375H38.7045L39.8267 6.47937C44.1766 8.38031 47.0312 12.6788 47.0312 17.5C47.0312 21.6333 45.0822 24.127 43.0194 26.7663ZM47.0312 26.25C47.0312 25.7523 47.075 25.2547 47.1494 24.7658C47.9084 23.5167 48.5275 22.1309 48.8862 20.5122C50.7358 17.9419 53.7053 16.4062 56.875 16.4062C62.3022 16.4062 66.7188 20.8217 66.7188 26.25C66.7188 29.762 64.9469 31.9189 63.2341 34.0047C62.1611 35.3095 61.0619 36.6559 60.4516 38.2812H60.1562V29.5312H61.25C63.0591 29.5312 64.5312 28.0591 64.5312 26.25C64.5312 24.4409 63.0591 22.9688 61.25 22.9688C59.4409 22.9688 57.9688 24.4409 57.9688 26.25V27.3438H55.7812V26.25C55.7812 24.4409 54.3091 22.9688 52.5 22.9688C50.6909 22.9688 49.2188 24.4409 49.2188 26.25C49.2188 28.0591 50.6909 29.5312 52.5 29.5312H53.5938V38.2812H53.2984C52.6892 36.6548 51.5889 35.3095 50.5159 34.0047C48.8031 31.9189 47.0312 29.762 47.0312 26.25ZM60.1562 27.3438V26.25C60.1562 25.6462 60.6473 25.1562 61.25 25.1562C61.8527 25.1562 62.3438 25.6462 62.3438 26.25C62.3438 26.8538 61.8527 27.3438 61.25 27.3438H60.1562ZM53.795 44.8438H59.9539C59.5011 46.1136 58.298 47.0312 56.8739 47.0312C55.4498 47.0312 54.2478 46.1136 53.795 44.8438Z" fill="black"/>
</svg>

<svg width="70" height="70" fill="none" xmlns="http://www.w3.org/2000/svg"><path d="M63.438 53.594h-4.376c-.602 0-1.093-.49-1.093-1.094v-3.392a5.478 5.478 0 004.375-5.358v-4.2c.401-1.49 1.407-2.731 2.58-4.157 1.867-2.272 3.982-4.847 3.982-9.143 0-6.634-5.397-12.031-12.031-12.031-2.838 0-5.54 1.016-7.676 2.788a14.188 14.188 0 00-8.754-12.64c.01-.1.024-.198.024-.297a2.98 2.98 0 00-2.976-2.976h-4.888a3.271 3.271 0 00-3.265 2.954l-.044.434c-4.967 2.183-8.304 7.092-8.495 12.525a12.026 12.026 0 00-7.676-2.788c-6.634 0-12.031 5.397-12.031 12.031 0 4.296 2.115 6.87 3.982 9.143 1.173 1.426 2.179 2.666 2.58 4.157v4.2a5.48 5.48 0 004.375 5.358V52.5a3.285 3.285 0 003.281 3.281h4.376a1.095 1.095 0 010 2.188H6.563A3.285 3.285 0 003.28 61.25a3.285 3.285 0 003.281 3.281h4.375c.603 0 1.094.49 1.094 1.094v3.281h2.188v-3.281a3.285 3.285 0 00-3.281-3.281H6.561a1.095 1.095 0 010-2.188h13.125a3.285 3.285 0 003.282-3.281 3.285 3.285 0 00-3.282-3.281h-4.375c-.602 0-1.093-.49-1.093-1.094v-3.392a5.478 5.478 0 004.375-5.358v-4.2c.401-1.49 1.407-2.731 2.58-4.157 1.623-1.976 3.43-4.183 3.875-7.548.07.088.139.18.208.268 1.241 1.588 2.41 3.098 3.18 4.94v6.322c0 1.424.917 2.627 2.187 3.08v.201c0 2.034 1.4 3.731 3.281 4.22v1.249c0 .604-.49 1.094-1.094 1.094h-3.28a4.38 4.38 0 00-4.376 4.375 4.38 4.38 0 004.375 4.375h9.844a3.285 3.285 0 013.281 3.281 3.285 3.285 0 01-3.281 3.281h-2.188a3.285 3.285 0 00-3.28 3.281v1.094h2.187v-1.094c0-.603.49-1.093 1.093-1.093h2.188a5.475 5.475 0 005.469-5.469 5.475 5.475 0 00-5.47-5.469H29.53a2.19 2.19 0 01-2.187-2.187 2.19 2.19 0 012.187-2.188h3.281a3.285 3.285 0 003.282-3.281v-1.25c1.88-.488 3.28-2.185 3.28-4.219v-.201a3.277 3.277 0 002.188-3.08v-6.32c.77-1.843 1.938-3.352 3.18-4.941l.208-.268c.445 3.365 2.253 5.572 3.875 7.548 1.172 1.426 2.179 2.666 2.58 4.157v4.199c0 2.64 1.882 4.85 4.375 5.358V52.5a3.285 3.285 0 003.281 3.281h4.375a1.095 1.095 0 010 2.188H50.312a3.285 3.285 0 00-3.28 3.281 3.285 3.285 0 003.28 3.281h4.376c.602 0 1.093.49 1.093 1.094v3.281h2.188v-3.281a3.285 3.285 0 00-3.282-3.281h-4.374a1.095 1.095 0 010-2.188h13.124a3.285 3.285 0 003.282-3.281 3.285 3.285 0 00-3.281-3.281zm-9.844-26.25H52.5a1.095 1.095 0 010-2.188c.603 0 1.094.49 1.094 1.094v1.094zm4.375 10.937H55.78v-8.75h2.188v8.75zm2.187 2.188v2.187h-6.562V40.47h6.562zM32.605 3.28h4.888a.789.789 0 01.748 1.038l-2.57 7.712h4.07a.73.73 0 01.672 1.01l-4.992 11.982c-.08.192-.421.125-.421-.085v-10.72h-3.385c-.546 0-.99-.443-.984-1.088l.885-8.864a1.09 1.09 0 011.089-.985zM9.844 27.344H8.75a1.095 1.095 0 010-2.188c.603 0 1.094.49 1.094 1.094v1.094zm4.375 10.937H12.03v-8.75h2.188v8.75zm2.187 2.188v2.187H9.844V40.47h6.562zm-3.281 6.562a3.277 3.277 0 01-3.08-2.187h6.159a3.274 3.274 0 01-3.079 2.187zm9.844-20.781c0 3.512-1.772 5.669-3.485 7.755-1.073 1.304-2.172 2.65-2.782 4.276h-.296v-8.75H17.5a3.285 3.285 0 003.281-3.281 3.285 3.285 0 00-3.281-3.281 3.285 3.285 0 00-3.281 3.281v1.094H12.03V26.25a3.285 3.285 0 00-3.281-3.281 3.285 3.285 0 00-3.281 3.281 3.285 3.285 0 003.281 3.281h1.094v8.75h-.296c-.609-1.626-1.71-2.971-2.782-4.276-1.713-2.086-3.485-4.243-3.485-7.755 0-5.428 4.417-9.844 9.844-9.844a9.85 9.85 0 017.99 4.107c.359 1.618.978 3.004 1.737 4.252.073.49.117.987.117 1.485zm-6.563 1.094V26.25a1.095 1.095 0 012.188 0c0 .604-.491 1.094-1.094 1.094h-1.094zm22.969 8.75h-8.75v-2.188h8.75v2.188zM35 44.844a2.19 2.19 0 01-2.188-2.188h4.376A2.19 2.19 0 0135 44.844zm3.281-4.375H31.72c-.603 0-1.094-.49-1.094-1.094v-1.094h8.75v1.094c0 .604-.491 1.094-1.094 1.094zm4.738-13.703c-1.174 1.503-2.365 3.07-3.24 4.953h-9.557c-.875-1.884-2.066-3.45-3.24-4.953-2.064-2.639-4.013-5.133-4.013-9.266 0-4.335 2.379-8.333 6.07-10.45l-.586 5.863a3.181 3.181 0 003.162 3.493h1.198v8.532a2.41 2.41 0 002.406 2.406c.975 0 1.846-.581 2.22-1.481l4.99-11.98c.152-.357.227-.735.227-1.122a2.92 2.92 0 00-2.917-2.917h-1.034l1.122-3.365A12.013 12.013 0 0147.031 17.5c0 4.133-1.949 6.627-4.012 9.266zm4.012-.516c0-.498.044-.995.118-1.484.76-1.25 1.379-2.635 1.737-4.254a9.85 9.85 0 017.989-4.106c5.427 0 9.844 4.416 9.844 9.844 0 3.512-1.772 5.669-3.485 7.755-1.073 1.304-2.172 2.65-2.782 4.276h-.296v-8.75h1.094a3.285 3.285 0 003.281-3.281 3.285 3.285 0 00-3.281-3.281 3.285 3.285 0 00-3.281 3.281v1.094H55.78V26.25a3.285 3.285 0 00-3.281-3.281 3.285 3.285 0 00-3.281 3.281 3.285 3.285 0 003.281 3.281h1.094v8.75h-.296c-.609-1.626-1.71-2.971-2.782-4.276-1.713-2.086-3.485-4.243-3.485-7.755zm13.125 1.094V26.25a1.095 1.095 0 012.188 0c0 .604-.491 1.094-1.094 1.094h-1.094zm-6.361 17.5h6.159a3.277 3.277 0 01-3.08 2.187 3.275 3.275 0 01-3.079-2.187z" fill="#000"/></svg>
